X: 63
T:Slow March,The. JaW.063
M:C
L:1/8
Q:1/4=150
S:James Winder Ms, Lancashire, 1835-41
R:March
O:England
A:Wyresdale,Lancashire
H:1/8
Z:vmp.Chris Partington, Aug 2004
K:C
c2G2 E2C2|c>de>f e2c2|g2fe f2ed|e2dc d2G2|!
c2G2 E2C2|c>de>f e2c2|g2fe f2ef|gfed c4:|!
|:d2de d2G2|cdef g4|ecde fefg|agfe d4|!
eggg eccc|faaa fddd|eggg e>cf>d|e>cd>G c4|!
egeg ecec|fafa fdfd|egeg e>cf>d|e>cd>G c4:|]
